frontend/public/assets/logo.svg

<svg viewBox="0 0 512 512" xmlns="http://www.w3.org/2000/svg" xml:space="preserve" fill-rule="evenodd" clip-rule="evenodd" stroke-linecap="round" stroke-linejoin="round" stroke-miterlimit="1.5"><path d="M411.243 347.983c-13.044 2.699-39.132 8.096-57.203 9.459-17.032 1.284-34.156-1.93-51.224-1.284-19.253.728-46.025 1.898-64.298 5.655-15.798 3.248-30.843 9.822-45.342 16.886-15.047 7.333-29.565 18.767-44.944 27.108-15.984 8.669-32.969 20.011-50.958 24.904-17.989 4.894-38.221 7.799-56.975 4.457-26.981-4.809-78.937-23.809-104.915-33.309" fill="none" stroke="#f26722" stroke-width="21.33" stroke-dasharray="28.8 1.07 0 42.67" transform="translate(-11.9997882 -7.33191721)"/><path d="M182.9 551.7c0 .1.2.3.2.3s175.2-269 175.2-357.4c0-130.1-88.8-186.7-175.4-186.9C96.3 7.9 7.5 64.5 7.5 194.6 7.5 283 182.8 552 182.8 552l.1-.3Zm-60.7-364.5c0-33.6 27.2-60.8 60.8-60.8 33.6 0 60.8 27.2 60.8 60.8 0 33.6-27.3 60.8-60.9 60.8-33.5 0-60.7-27.2-60.7-60.8Z" fill="#f26722" fill-rule="nonzero" stroke="#f26722" stroke-width="2.19" stroke-linecap="butt" stroke-miterlimit="2" transform="translate(327.58086688 72.48757911) scale(.4561)"/><circle cx="172.268" cy="103.438" r="64.643" stroke="#000" stroke-width="25.6" fill="none" transform="translate(142.42380616 183.19209425) scale(.78121)"/><circle cx="172.268" cy="103.438" r="64.643" stroke="#000" stroke-width="25.6" fill="none" transform="translate(-54.57747043 237.19186198) scale(.78121)"/><path d="m90.665 186.104 89.51 106.279" fill="none" stroke="#000" stroke-width="21.03" transform="matrix(.97606 -.086 .03698 .97075 -7.09331325 18.38490314)"/><path d="m295.986 205.721 54.937 44.523-54.937 44.523-54.936-44.523 54.936-44.523Z" stroke="#000" stroke-width="14.08" fill="none" transform="matrix(1.11962 -1.16935 .8588 .82227 -404.11734834 393.79618838)"/><path d="m59.105 196.774 66.55-18.278" fill="none" stroke="#000" stroke-width="20.36" transform="matrix(.93161 .01878 .01878 .99484 3.1649572 -.86931404)"/><path d="m203.202 188.115-6.012-28.518" fill="none" stroke="#000" stroke-width="20.74" transform="matrix(.99782 -.01034 -.01034 .95093 2.38935413 11.33243348)"/><path d="m228.252 155.594-31.062 4.003" fill="none" stroke="#000" stroke-width="20" transform="rotate(-6.99917 204.55050819 157.08806062)"/><path d="m198.714 190.789 75.695 75.695" fill="none" stroke="#000" stroke-width="20" transform="translate(3.00025654 -3.00010488)"/><path d="M27.933 153.601c-11.684 0-21.17 9.494-21.17 21.189 0 11.694 9.486 21.189 21.17 21.189-11.684 0-21.17-9.495-21.17-21.189 0-11.695 9.486-21.189 21.17-21.189Z" stroke="#000" stroke-width="25.59" fill="none" transform="matrix(-.7531 .2348 -.23038 -.73895 293.15140034 291.20462966)"/></svg>

<?xml version="1.0" encoding="UTF-8" standalone="no"?>
<!DOCTYPE svg PUBLIC "-//W3C//DTD SVG 1.1//EN" "http://www.w3.org/Graphics/SVG/1.1/DTD/svg11.dtd">
<svg width="100%" height="100%" viewBox="0 0 512 512" version="1.1" xmlns="http://www.w3.org/2000/svg" xmlns:xlink="http://www.w3.org/1999/xlink" xml:space="preserve" xmlns:serif="http://www.serif.com/" style="fill-rule:evenodd;clip-rule:evenodd;stroke-linecap:round;stroke-linejoin:round;stroke-miterlimit:1.5;">
    <g id="Logo" transform="matrix(1.19908,0,0,1.23685,-62.1633,-43.3903)">
        <g id="Line" transform="matrix(0.833976,0,0,0.808502,41.835,29.1534)">
            <path d="M411.243,347.983C398.199,350.682 372.111,356.079 354.04,357.442C337.008,358.726 319.884,355.512 302.816,356.158C283.563,356.886 256.791,358.056 238.518,361.813C222.72,365.061 207.675,371.635 193.176,378.699C178.129,386.032 163.611,397.466 148.232,405.807C132.248,414.476 115.263,425.818 97.274,430.711C79.285,435.605 59.053,438.51 40.299,435.168C13.318,430.359 -38.638,411.359 -64.616,401.859" style="fill:none;stroke:rgb(242,103,34);stroke-width:21.33px;stroke-dasharray:28.8,1.07,0,42.67;"/>
        </g>
        <g id="Marker" transform="matrix(0.380377,0,0,0.368758,325.036,93.6879)">
            <path d="M182.9,551.7C182.9,551.8 183.1,552 183.1,552C183.1,552 358.3,283 358.3,194.6C358.3,64.5 269.5,7.9 182.9,7.7C96.3,7.9 7.5,64.5 7.5,194.6C7.5,283 182.8,552 182.8,552L182.9,551.7ZM122.2,187.2C122.2,153.6 149.4,126.4 183,126.4C216.6,126.4 243.8,153.6 243.8,187.2C243.8,220.8 216.5,248 182.9,248C149.4,248 122.2,220.8 122.2,187.2Z" style="fill:rgb(242,103,34);fill-rule:nonzero;stroke:rgb(242,103,34);stroke-width:2.19px;stroke-linecap:butt;stroke-miterlimit:2;"/>
        </g>
        <g id="Bike" transform="matrix(0.833976,0,0,0.808502,51.8427,35.0812)">
            <g id="Front-Wheel" serif:id="Front Wheel" transform="matrix(0.78121,0,0,0.78121,142.423,183.193)">
                <circle cx="172.268" cy="103.438" r="64.643" style="fill-opacity:0;stroke:black;stroke-width:25.6px;"/>
            </g>
            <g id="Back-Wheel" serif:id="Back Wheel" transform="matrix(0.78121,0,0,0.78121,-54.5775,237.193)">
                <circle cx="172.268" cy="103.438" r="64.643" style="fill-opacity:0;stroke:black;stroke-width:25.6px;"/>
            </g>
            <g id="Seat-tube" serif:id="Seat tube" transform="matrix(0.976061,-0.0859923,0.0369764,0.970757,-7.09353,18.3851)">
                <path d="M90.665,186.104L180.175,292.383" style="fill:none;stroke:black;stroke-width:21.03px;"/>
            </g>
            <g id="Frame" transform="matrix(1.11962,-1.16936,0.858805,0.822276,-404.116,393.798)">
                <path d="M295.986,205.721L350.923,250.244L295.986,294.767L241.05,250.244L295.986,205.721Z" style="fill-opacity:0;stroke:black;stroke-width:14.08px;"/>
            </g>
            <g id="Saddle" transform="matrix(0.931609,0.018784,0.018784,0.994841,3.1647,-0.8692)">
                <path d="M59.105,196.774L125.655,178.496" style="fill:none;stroke:black;stroke-width:20.36px;"/>
            </g>
            <g id="Headset" transform="matrix(0.997819,-0.0103445,-0.0103445,0.950931,2.3891,11.3326)">
                <path d="M203.202,188.115L197.19,159.597" style="fill:none;stroke:black;stroke-width:20.74px;"/>
            </g>
            <g id="Stem" transform="matrix(0.992544,-0.121886,0.121886,0.992544,-17.6226,26.1026)">
                <path d="M228.252,155.594L197.19,159.597" style="fill:none;stroke:black;stroke-width:20px;"/>
            </g>
            <g id="Fork" transform="matrix(1,0,0,1,3,-3)">
                <path d="M198.714,190.789L274.409,266.484" style="fill:none;stroke:black;stroke-width:20px;"/>
            </g>
            <g id="Drops" transform="matrix(-0.753101,0.234794,-0.230383,-0.738955,293.15,291.206)">
                <path d="M27.933,153.601C16.249,153.601 6.763,163.095 6.763,174.79C6.763,186.484 16.249,195.979 27.933,195.979C16.249,195.979 6.763,186.484 6.763,174.79C6.763,163.095 16.249,153.601 27.933,153.601Z" style="fill-opacity:0;stroke:black;stroke-width:25.59px;"/>
            </g>
        </g>
    </g>
</svg>
